src/lib/packages/icons/src/assets/filled/receipt-alt.svg

<svg width="24" height="24" viewBox="0 0 24 24" fill="none" xmlns="http://www.w3.org/2000/svg">
<path d="M15.08 18.541L13.061 20.56C12.475 21.146 11.5249 21.146 10.9399 20.56L8.92102 18.541C8.39302 18.013 7.55696 17.954 6.95996 18.402L5.60095 19.421C4.94195 19.915 4.00098 19.445 4.00098 18.621V5.37798C4.00098 4.55398 4.94195 4.08399 5.60095 4.57799L6.95996 5.59697C7.55696 6.04497 8.39302 5.98599 8.92102 5.45799L10.9399 3.43898C11.5259 2.85298 12.476 2.85298 13.061 3.43898L15.08 5.45799C15.608 5.98599 16.444 6.04497 17.041 5.59697L18.4 4.57799C19.059 4.08399 20 4.55398 20 5.37798V18.621C20 19.445 19.059 19.915 18.4 19.421L17.041 18.402C16.444 17.954 15.608 18.013 15.08 18.541Z" fill="currentColor"/>
</svg>

<svg xmlns="http://www.w3.org/2000/svg" width="24" height="24" fill="none"><path fill="currentColor" d="m15.08 18.541-2.019 2.019a1.5 1.5 0 0 1-2.121 0l-2.02-2.019a1.5 1.5 0 0 0-1.961-.139L5.6 19.421a1 1 0 0 1-1.6-.8V5.378a1 1 0 0 1 1.6-.8l1.36 1.019a1.5 1.5 0 0 0 1.961-.139l2.019-2.019a1.5 1.5 0 0 1 2.121 0l2.019 2.019a1.5 1.5 0 0 0 1.961.139L18.4 4.578a1 1 0 0 1 1.6.8v13.243a1 1 0 0 1-1.6.8l-1.359-1.019a1.5 1.5 0 0 0-1.961.139Z"/></svg>
